svg/apache-airflow.svg

<svg viewBox="0 0 20 20" xmlns="http://www.w3.org/2000/svg">
<rect width="100%" height="100%" fill="#017CEE"/>
<path d="M12.9696 6.88005V6.89005L10.1596 9.76005C10.0996 9.70005 10.0196 9.67005 9.92957 9.67005C9.87957 9.67005 9.82957 9.68005 9.78957 9.70005C8.65957 7.34005 7.24957 6.51005 6.82957 6.95005L2.55957 2.79005C2.46957 2.71005 2.52957 2.55005 2.65957 2.55005C5.44957 2.59005 8.78957 2.81005 10.3096 4.28005L12.9396 6.86005C12.9496 6.86005 12.9596 6.87005 12.9696 6.88005Z" fill="white"/>
<path d="M15.6399 10.36C17.1199 8.84995 17.3299 5.50995 17.3699 2.70995C17.3699 2.58995 17.2199 2.51995 17.1299 2.60995L12.9696 6.88005V6.89005C13.3996 7.33005 12.5599 8.72995 10.2199 9.84995C10.2399 9.88995 10.2499 9.92995 10.2499 9.97995C10.2499 10.07 10.2199 10.15 10.1699 10.21L13.0499 13.02L13.0699 13L15.6399 10.36Z" fill="white"/>
<path d="M9.56039 15.69C11.0804 17.17 14.4104 17.38 17.2104 17.42C17.3404 17.42 17.4004 17.27 17.3104 17.18L13.0499 13.02L13.0404 13.03C12.6104 13.46 11.2104 12.64 10.0604 10.28C10.0204 10.3 9.98039 10.31 9.94039 10.31C9.85039 10.31 9.77039 10.28 9.71039 10.22L6.90039 13.1L6.92039 13.12L9.56039 15.69Z" fill="white"/>
<path d="M9.64 10.12C9.63 10.08 9.62 10.04 9.62 9.98995C9.61 9.89995 9.65 9.80995 9.71 9.75995L6.82957 6.95005L4.23 9.60995C2.75 11.13 2.54 14.47 2.5 17.26C2.5 17.39 2.65 17.45 2.74 17.36L6.90039 13.1L6.89 13.09C6.46 12.67 7.28 11.26 9.64 10.12Z" fill="white"/>
</svg>

<svg xmlns="http://www.w3.org/2000/svg" viewBox="0 0 20 20">
  <rect width="100%" height="100%" fill="#017CEE"/>
  <path fill="#fff" d="M12.97 6.88v.01l-2.81 2.87a.32.32 0 0 0-.23-.09c-.05 0-.1.01-.14.03-1.13-2.36-2.54-3.19-2.96-2.75L2.56 2.79c-.09-.08-.03-.24.1-.24 2.79.04 6.13.26 7.65 1.73l2.63 2.58.03.02Z"/>
  <path fill="#fff" d="M15.64 10.36c1.48-1.51 1.69-4.85 1.73-7.65 0-.12-.15-.19-.24-.1l-4.16 4.27v.01c.43.44-.41 1.84-2.75 2.96.02.04.03.08.03.13 0 .09-.03.17-.08.23l2.88 2.81.02-.02 2.57-2.64Z"/>
  <path fill="#fff" d="M9.56 15.69c1.52 1.48 4.85 1.69 7.65 1.73.13 0 .19-.15.1-.24l-4.26-4.16-.01.01c-.43.43-1.83-.39-2.98-2.75a.27.27 0 0 1-.12.03.32.32 0 0 1-.23-.09L6.9 13.1l.02.02 2.64 2.57ZM9.64 10.12l-.02-.13a.27.27 0 0 1 .09-.23L6.83 6.95l-2.6 2.66c-1.48 1.52-1.69 4.86-1.73 7.65 0 .13.15.19.24.1L6.9 13.1l-.01-.01c-.43-.42.39-1.83 2.75-2.97Z"/>
</svg>
